X:19
T:Saray Yolu
O:Turkey
M:2/4
K:F
|:d2df|d2cd|c2Bc|1Bcd2:|2ABc2|
|:c2cd|B2Bc|A2AB|G2B2|
B2Bc|A2AB|AG3|G2z2:|
